static/assets/svg/human/humanClothes/pants3_stickers/pants3_sticker6.svg

<svg class="bottomOverlay" width="86" height="380" viewBox="202.715 584.407 86.593 380.048" xmlns="http://www.w3.org/2000/svg" xmlns:xlink="http://www.w3.org/1999/xlink"><defs><pattern id="b" width="20" height="20" patternUnits="userSpaceOnUse" viewBox="0 0 100 100"><path d="M0 0h50v100H0z"/><g transform="matrix(.11305 0 0 .16807 -.631 .38)"><defs><linearGradient id="a" x2="0" y2="1" gradientUnits="objectBoundingBox"><stop offset="0" stop-color="red"/><stop offset=".167" stop-color="red"/><stop offset=".167" stop-color="#FF9800"/><stop offset=".333" stop-color="#FF9800"/><stop offset=".333" stop-color="#FF0"/><stop offset=".5" stop-color="#FF0"/><stop offset=".5" stop-color="#009800"/><stop offset=".667" stop-color="#009800"/><stop offset=".667" stop-color="#00F"/><stop offset=".833" stop-color="#00F"/><stop offset=".833" stop-color="#980098"/><stop offset="1" stop-color="#980098"/></linearGradient></defs><path fill="url(#a)" d="M0 0h900v600H0z"/></g></pattern><pattern id="c" patternTransform="translate(234.101 814.212)" xlink:href="#b"/></defs><path d="M210.401 790.335c.304.691-.074 7.617-1.218 7.617-2.235 2.539-1.161.128-2.438 3.959-.452 1.356-2.413 20.413-4.875 20.413 0 9.665 1.351 22.538 0 31.988-.436 3.057 1.068 6.702-.304 9.446-5.602-.61 6.311.012 11.881.609 8.075.865 14.351.304 22.24.304 3.961-1.575 4.57-2.408 4.57-3.656-1.687-3.679 0-11.884 0-15.842v-4.874c0-1.177.205-4.266.914-4.266.659.305 1.039.914 2.133.914 2.134-1.829 1.828 4.526 1.828 5.18 0 3.5 1.525 14.012-.61 16.146 0 1.383-.304 2.298-.304 3.656 0 1.694 7.773 2.133 9.444 2.133 10.43 0 20.704-2.437 30.77-2.437 1.049 0 3.787.609 2.438.609-.305-1.795.47-12.101 1.218-15.842.051-.254-.093-6.716-.304-7.616-1.869-7.982-1.219-11.19-1.219-17.975 0-1.958.305-3.758.305-5.18 0-3.296-2.133-7.459-2.133-9.139 0-2.359-2.437-3.897-2.437-6.093-.305-1.819-.914-3.181-.914-4.57-1.397-1.702-1.549-1.523-3.351-1.523-.709-.305-.61-2.853-.61-3.352-.647-.952-.304-4.586-.304-5.788 0-2.59-14.881-1.219-17.975-1.219-8.264 0-20.41-.741-28.333 1.523-6.412 1.832-13.724 4.57-20.108 4.57-.304-.525-1.402-.304-.304-.304v.609z" class="clothes" fill="url(#c)"/></svg>

<svg class="bottomOverlay" width="86" height="380" viewBox="202.715 584.407 86.5933 380.048" preserveAspectRatio="xMidYMid meet" xmlns="http://www.w3.org/2000/svg" xmlns:xlink="http://www.w3.org/1999/xlink">
  <defs id="svgEditorDefs">
    <path id="svgEditorClosePathDefs" fill="moccasin" style="stroke-width: 0px; stroke: none; fill-opacity: 1;" class="clothes"/>
    <pattern id="pattern-0" x="0" y="0" width="20" height="20" patternUnits="userSpaceOnUse" viewBox="0 0 100 100">
      <path d="M 0 0 L 50 0 L 50 100 L 0 100 Z" style="fill: black;"/>
      <g transform="matrix(0.113048, 0, 0, 0.16807, -0.631408, 0.380373)">
        <g id="rainbowflag">
          <title>The Rainbow Flag Gradient, by Adam Stanislav</title>
          <defs>
            <linearGradient id="Rainbow" x1="0" x2="0" y1="0" y2="1" gradientUnits="objectBoundingBox">
              <stop offset="0" stop-color="#F00"/>
              <stop offset="0.1667" stop-color="#F00"/>
              <stop offset="0.1667" stop-color="#FF9800"/>
              <stop offset="0.3333" stop-color="#FF9800"/>
              <stop offset="0.3333" stop-color="#FF0"/>
              <stop offset="0.5" stop-color="#FF0"/>
              <stop offset="0.5" stop-color="#009800"/>
              <stop offset="0.6667" stop-color="#009800"/>
              <stop offset="0.6667" stop-color="#00F"/>
              <stop offset="0.8333" stop-color="#00F"/>
              <stop offset="0.8333" stop-color="#980098"/>
              <stop offset="1" stop-color="#980098"/>
            </linearGradient>
          </defs>
          <rect id="RainbowFlag" fill="url(#Rainbow)" width="900" height="600"/>
        </g>
      </g>
    </pattern>
    <pattern id="pattern-0-0" patternTransform="matrix(1, 0, 0, 1, 234.101135, 814.212158)" xlink:href="#pattern-0"/>
  </defs>
  <path d="M 210.401 790.335 C 210.705 791.026 210.327 797.952 209.183 797.952 C 206.948 800.491 208.022 798.08 206.745 801.911 C 206.293 803.267 204.332 822.324 201.87 822.324 C 201.87 831.989 203.221 844.862 201.87 854.312 C 201.434 857.369 202.938 861.014 201.566 863.758 C 195.964 863.148 207.877 863.77 213.447 864.367 C 221.522 865.232 227.798 864.671 235.687 864.671 C 239.648 863.096 240.257 862.263 240.257 861.015 C 238.57 857.336 240.257 849.131 240.257 845.173 C 240.257 843.345 240.257 841.822 240.257 840.299 C 240.257 839.122 240.462 836.033 241.171 836.033 C 241.83 836.338 242.21 836.947 243.304 836.947 C 245.438 835.118 245.132 841.473 245.132 842.127 C 245.132 845.627 246.657 856.139 244.522 858.273 C 244.522 859.656 244.218 860.571 244.218 861.929 C 244.218 863.623 251.991 864.062 253.662 864.062 C 264.092 864.062 274.366 861.625 284.432 861.625 C 285.481 861.625 288.219 862.234 286.87 862.234 C 286.565 860.439 287.34 850.133 288.088 846.392 C 288.139 846.138 287.995 839.676 287.784 838.776 C 285.915 830.794 286.565 827.586 286.565 820.801 C 286.565 818.843 286.87 817.043 286.87 815.621 C 286.87 812.325 284.737 808.162 284.737 806.482 C 284.737 804.123 282.3 802.585 282.3 800.389 C 281.995 798.57 281.386 797.208 281.386 795.819 C 279.989 794.117 279.837 794.296 278.035 794.296 C 277.326 793.991 277.425 791.443 277.425 790.944 C 276.778 789.992 277.121 786.358 277.121 785.156 C 277.121 782.566 262.24 783.937 259.146 783.937 C 250.882 783.937 238.736 783.196 230.813 785.46 C 224.401 787.292 217.089 790.03 210.705 790.03 C 210.401 789.505 209.303 789.726 210.401 789.726 L 210.401 790.335 Z" style="stroke: black; stroke-width: 0; fill: url(#pattern-0-0);" class="clothes"/>
</svg>
